outline/svg/border_bottom.svg

<svg xmlns="http://www.w3.org/2000/svg" width="24" height="24"><path fill="none" d="M0 0h24v24H0V0z"/><g fill="currentColor"><path d="M9 11H7v2h2v-2zm4 4h-2v2h2v-2zM9 3H7v2h2V3zm4 8h-2v2h2v-2zM5 3H3v2h2V3zm8 4h-2v2h2V7zm4 4h-2v2h2v-2zm-4-8h-2v2h2V3zm4 0h-2v2h2V3zm2 10h2v-2h-2v2zm0 4h2v-2h-2v2zM5 7H3v2h2V7zm14-4v2h2V3h-2zm0 6h2V7h-2v2zM5 11H3v2h2v-2zM3 21h18v-2H3v2zm2-6H3v2h2v-2z"/></g></svg>

<?xml version="1.0" encoding="utf-8"?>
<!-- Generator: Adobe Illustrator 19.1.0, SVG Export Plug-In . SVG Version: 6.00 Build 0)  -->
<svg version="1.1" xmlns="http://www.w3.org/2000/svg" xmlns:xlink="http://www.w3.org/1999/xlink" x="0px" y="0px" width="24px"
	 height="24px" viewBox="0 0 24 24" enable-background="new 0 0 24 24" xml:space="preserve">
<g id="Bounding_Boxes">
	<g id="ui_x5F_spec_x5F_header_copy_3">
	</g>
	<path fill="none" d="M0,0h24v24H0V0z"/>
</g>
<g id="Outline" fill="currentColor">
	<g id="ui_x5F_spec_x5F_header">
	</g>
	<path d="M9,11H7v2h2V11z M13,15h-2v2h2V15z M9,3H7v2h2V3z M13,11h-2v2h2V11z M5,3H3v2h2V3z M13,7h-2v2h2V7z M17,11h-2v2h2V11z
		 M13,3h-2v2h2V3z M17,3h-2v2h2V3z M19,13h2v-2h-2V13z M19,17h2v-2h-2V17z M5,7H3v2h2V7z M19,3v2h2V3H19z M19,9h2V7h-2V9z M5,11H3v2
		h2V11z M3,21h18v-2H3V21z M5,15H3v2h2V15z"/>
</g>
</svg>
